browser/components/shopping/content/assets/competitiveness.svg

<!-- This Source Code Form is subject to the terms of the Mozilla Public
   - License, v. 2.0. If a copy of the MPL was not distributed with this
   - file, You can obtain one at http://mozilla.org/MPL/2.0/. -->
<svg xmlns="http://www.w3.org/2000/svg" width="16" height="16" fill="context-fill" fill-opacity="context-fill-opacity">
<path fill-rule="evenodd" d="M3 1.75C3 1.33579 3.33579 1 3.75 1H12.25C12.6642 1 13 1.33579 13 1.75V3H15.25C15.6642 3 16 3.33579 16 3.75V6.25C16 8.20643 14.5021 9.81272 12.5905 9.98475C11.9176 11.5388 10.4787 12.684 8.75 12.9441V14.75H12V16H4V14.75H7.25V12.9441C5.52134 12.684 4.08238 11.5388 3.40948 9.98475C1.49787 9.81272 0 8.20643 0 6.25V3.75C0 3.33579 0.335786 3 0.75 3H3V1.75ZM12.986 8.3769C13.8673 8.07206 14.5 7.23502 14.5 6.25V4.5H13V8C13 8.12679 12.9953 8.25248 12.986 8.3769ZM3 8C3 8.12679 3.00472 8.25248 3.014 8.3769C2.13273 8.07206 1.5 7.23502 1.5 6.25V4.5H3V8ZM4.5 2.5V8C4.5 9.93279 6.06721 11.5 8 11.5C9.93279 11.5 11.5 9.93279 11.5 8V2.5H4.5Z"/>
</svg>

<!-- This Source Code Form is subject to the terms of the Mozilla Public
   - License, v. 2.0. If a copy of the MPL was not distributed with this
   - file, You can obtain one at http://mozilla.org/MPL/2.0/. -->
<svg xmlns="http://www.w3.org/2000/svg" width="16" height="16" fill="context-fill" fill-opacity="context-fill-opacity">
<path fill-rule="evenodd" clip-rule="evenodd" d="M3 1.75A.75.75 0 0 1 3.75 1h8.5a.75.75 0 0 1 .75.75V3h2.25a.75.75 0 0 1 .75.75v2.5a3.75 3.75 0 0 1-3.41 3.735 5.007 5.007 0 0 1-3.84 2.96V14.5H12V16H4v-1.5h3.25v-1.556a5.007 5.007 0 0 1-3.84-2.96A3.75 3.75 0 0 1 0 6.25v-2.5A.75.75 0 0 1 .75 3H3V1.75zm9.986 6.627A2.25 2.25 0 0 0 14.5 6.25V4.5H13V8c0 .127-.005.252-.014.377zM3 8c0 .127.005.252.014.377A2.25 2.25 0 0 1 1.5 6.25V4.5H3V8zm1.5-5.5V8a3.5 3.5 0 0 0 7 0V2.5h-7z"/>
</svg>
